public/svg/affiliation-three.svg

<svg width="86" height="56" viewBox="0 0 86 56" fill="none" xmlns="http://www.w3.org/2000/svg">
<path d="M31.5474 8.49693C30.9808 9.09193 30.1591 11.0186 28.6858 15.0986C28.4024 15.8919 28.0058 16.8269 27.8358 17.1669C27.6374 17.5353 27.0708 18.9803 26.5608 20.3969C25.5124 23.3436 22.2824 31.7586 21.8858 32.6086C21.7441 32.9203 21.2908 34.1386 20.8658 35.3003C20.4691 36.4619 20.0158 37.5386 19.8741 37.7086C19.7324 37.8503 19.6191 38.1903 19.6191 38.4736C19.6191 38.7286 19.1941 39.9469 18.6558 41.1653C17.2674 44.3386 16.1908 47.6536 16.3891 48.1353C16.7574 49.1269 17.7208 49.1836 32.7941 49.1836C43.3058 49.1836 47.8391 49.0986 48.3491 48.8719C49.0291 48.5603 49.9074 47.0586 50.3324 45.5003C50.5024 44.8486 51.0124 43.6019 52.0891 41.0519C52.3158 40.5703 52.4858 39.9753 52.4858 39.7486C52.4858 39.4936 52.5991 39.2386 52.7408 39.1536C52.8824 39.0686 53.0808 38.6436 53.1941 38.2186C53.2791 37.7653 53.5624 37.1986 53.8174 36.9436C54.0441 36.6886 54.1574 36.3203 54.0441 36.1503C53.9308 35.9519 53.9874 35.6969 54.1574 35.5836C54.3558 35.4703 54.5258 35.1019 54.5541 34.7903C54.5824 34.4503 54.6958 34.1669 54.8091 34.1669C54.9224 34.1669 55.0358 33.9969 55.0358 33.7703C55.0358 33.4303 56.5658 29.1519 57.3024 27.5086C57.4158 27.1969 57.8124 26.1769 58.1808 25.2419C58.5208 24.3069 58.9458 23.1453 59.1441 22.6919C59.3424 22.2103 59.6541 21.3886 59.8524 20.8503C60.0224 20.3119 60.3058 19.6036 60.4191 19.2919C61.3541 16.9969 62.6858 13.4269 62.9691 12.4919C63.1674 11.8686 63.4791 11.1036 63.6491 10.7919C64.2441 9.85693 64.4141 9.17693 64.0458 9.40359C63.8474 9.54526 63.7908 9.46026 63.9041 9.17693C63.9891 8.92192 63.8474 8.52526 63.5641 8.27026C63.1108 7.87359 61.3541 7.81693 47.6124 7.81693H32.1708L31.5474 8.49693ZM61.7791 12.9736C60.8724 15.3536 58.9174 20.4253 57.4441 24.2503C55.9991 28.0753 54.0158 33.2319 53.0524 35.7253C52.0891 38.2186 50.6441 42.0153 49.8508 44.1403L48.3774 48.0219L32.7091 48.1069C18.8824 48.1919 17.0408 48.1353 17.1541 47.7669C17.2391 47.5403 18.5708 43.9703 20.1574 39.8619C23.3024 31.7586 31.7458 9.60192 31.9441 9.00693C32.0291 8.75193 35.4574 8.66693 47.7541 8.66693H63.4508L61.7791 12.9736Z" fill="black"/>
<path d="M36.8993 17.5343C34.6893 18.1859 33.4143 18.9226 31.7993 20.5659C28.0026 24.3909 27.0676 30.4543 29.5043 35.4409C30.5243 37.4809 32.7343 39.6909 34.7459 40.6259C38.9393 42.6093 44.2093 41.7593 47.6659 38.5293L49.0826 37.1976L48.0343 36.2626C47.4393 35.7526 46.8443 35.3276 46.7309 35.2993C46.5893 35.2993 46.1926 35.6676 45.8243 36.0926C45.4559 36.5176 44.4926 37.2543 43.6426 37.7076C42.3393 38.4443 41.8576 38.5576 39.8743 38.5576C37.8909 38.5576 37.4093 38.4443 36.0776 37.7076C33.1876 36.1209 31.7426 33.4293 31.7143 29.4909C31.6859 26.3176 32.3376 24.5609 34.3493 22.5209C36.1059 20.7359 37.6643 20.1409 40.2993 20.1976C42.3393 20.2543 43.7276 20.8776 45.4276 22.4643L46.8443 23.7676L47.8076 22.8326C48.3459 22.2943 48.7993 21.7559 48.7993 21.6426C48.7993 21.0759 46.2493 19.0076 44.6059 18.2426C42.5093 17.2226 39.0243 16.9109 36.8993 17.5343ZM44.2376 19.1209C44.9459 19.4893 45.6826 19.9709 45.9093 20.1693C46.1076 20.3959 46.3909 20.5659 46.5326 20.5659C46.6743 20.5659 46.9293 20.8209 47.0993 21.1326C47.5526 21.9826 46.7309 22.1809 45.7959 21.4443C45.3709 21.1043 45.1443 20.8493 45.2859 20.8493C45.4276 20.8493 44.8326 20.5093 43.9826 20.1126C43.1326 19.7159 41.6876 19.3193 40.7809 19.2343C38.9676 19.0643 36.2476 19.5743 35.7376 20.1976C35.5676 20.3959 35.2559 20.5659 35.0859 20.5659C34.8876 20.5659 34.0376 21.3309 33.1309 22.2659C32.0259 23.4559 31.6009 24.1076 31.7143 24.4476C31.8559 24.7876 31.7993 24.8443 31.5159 24.6743C31.2893 24.5326 31.2043 24.5609 31.3176 24.7309C31.4309 24.9009 31.2893 25.6093 31.0626 26.3459C30.7226 27.3093 30.6376 28.2443 30.7509 29.7176C30.9776 32.5793 31.0909 33.1176 31.8276 34.5909C32.4509 35.8376 34.6326 38.4726 34.6326 37.9909C34.6326 37.8776 34.8593 37.9626 35.1426 38.2176C36.9843 39.8893 42.4526 40.0309 44.3509 38.4159C44.6343 38.1893 44.9176 38.0193 44.9743 38.0476C45.0593 38.1043 45.4276 37.7926 45.7959 37.4243C46.2209 36.9993 46.6743 36.8009 46.9576 36.8859C48.0059 37.3109 45.9376 39.0959 43.1893 40.1443C41.8293 40.6543 41.1493 40.7109 39.1093 40.5976C37.7209 40.5409 36.4459 40.3426 36.2759 40.2009C36.0776 40.0309 35.5959 39.8326 35.1993 39.7476C34.3209 39.5209 32.0826 37.8493 32.0826 37.3959C32.0826 37.1976 31.8843 36.9709 31.6576 36.8859C31.4026 36.8009 30.8076 35.8659 30.2976 34.8176C29.5043 33.0893 29.3909 32.5793 29.3059 29.9159C29.2493 27.1959 29.3059 26.7709 30.0143 25.0426C30.8926 22.9176 33.4993 19.7159 34.3209 19.7159C34.6043 19.7159 35.0009 19.5176 35.1993 19.2909C35.3693 19.0643 35.6243 18.8943 35.7093 18.9226C35.8226 18.9509 36.1059 18.8943 36.3326 18.7809C36.5593 18.6959 36.9559 18.5543 37.1826 18.4693C37.4093 18.3843 38.8259 18.3559 40.2993 18.3843C42.4526 18.4693 43.2459 18.6109 44.2376 19.1209Z" fill="black"/>
<path d="M9.70017 15.9772C7.66017 16.1755 7.71683 15.6938 7.71683 29.5205C7.6885 43.8855 7.5185 42.9505 10.4085 42.9505C13.1002 42.9505 13.2135 42.7238 13.3268 37.5955C13.3552 35.3288 13.4402 33.1472 13.4685 32.7788C13.5252 32.1272 13.5818 32.1272 16.6985 32.0705C19.7018 32.0422 19.9285 32.0138 20.5802 31.3338C21.3168 30.5405 22.3085 27.9338 21.8552 27.9338C21.6852 27.9338 21.6285 27.8205 21.7135 27.6788C22.0252 27.1972 20.8352 26.9422 17.2085 26.8005L13.5252 26.6588V23.9672V21.2755H18.7385H23.9518L24.7452 20.4822C26.3035 18.9522 26.4168 16.5155 24.9152 16.1755C24.1502 16.0055 11.0885 15.8355 9.70017 15.9772ZM24.8302 18.4988L24.1785 20.1422L18.2285 20.2272L12.2502 20.2838V24.1372V27.9905L16.7835 27.8772C19.2768 27.8488 21.2885 27.8488 21.2318 27.9338C21.2035 28.0188 20.9202 28.7555 20.6085 29.5488L20.0418 31.0505H16.1602H12.2502V36.5755V42.1005H10.4085H8.56683V29.4922V16.8838H17.0385H25.5102L24.8302 18.4988Z" fill="black"/>
<path d="M64.4969 16.0345C63.3352 16.2895 62.5702 16.8845 62.4569 17.5928C62.4002 17.9045 62.2586 18.2728 62.1169 18.4428C62.0036 18.5845 61.6919 19.4345 61.4086 20.2845C61.1252 21.1345 60.7852 22.0128 60.6152 22.1828C60.4736 22.3812 60.4452 22.5512 60.5586 22.5512C60.6719 22.5512 60.6436 22.7212 60.5019 22.8912C60.3319 23.0895 60.0486 23.7695 59.8502 24.3928C59.6519 25.0162 59.3969 25.6395 59.2836 25.8095C59.1986 25.9512 58.7452 27.1128 58.2919 28.3595C57.8669 29.6062 57.3852 30.7395 57.2719 30.8812C57.1302 31.0512 57.0169 31.4478 57.0169 31.7878C57.0169 32.1278 56.9319 32.4678 56.8186 32.5245C56.6769 32.5528 56.3086 33.3745 55.9686 34.3095C55.6286 35.2445 55.0902 36.7178 54.7502 37.5678C54.4102 38.4178 53.9286 39.7495 53.7302 40.5428C53.3336 41.9028 53.3619 41.9878 53.9286 42.4412C54.3536 42.8095 55.0336 42.9512 56.1952 42.9512C58.2069 42.9512 59.0569 42.2995 59.7652 40.2312C60.0202 39.4662 60.3319 38.7012 60.4736 38.5312C60.6152 38.3328 60.7002 38.0778 60.6719 37.9645C60.6436 37.8228 60.7569 37.3695 60.9269 36.9162L61.2669 36.1512H65.4886H69.7102L70.7869 38.8995C72.2036 42.6678 72.5152 42.9512 74.8386 42.9512C76.9352 42.9512 77.2752 42.8095 77.6436 41.8462C77.8136 41.3645 77.7569 40.8545 77.3886 40.1178C77.1052 39.5228 76.8219 38.7012 76.7369 38.2478C76.6519 37.7945 76.4536 37.3978 76.2836 37.3412C76.1419 37.2845 76.0569 37.1428 76.1419 37.0295C76.1986 36.8878 76.0286 36.2645 75.7169 35.6412C75.4052 34.9895 75.1502 34.3378 75.1502 34.1678C75.1502 34.0262 75.0369 33.6578 74.8952 33.3745C74.5269 32.6378 73.8469 31.0228 73.3652 29.7762C71.7786 25.5828 71.0702 23.7412 70.7586 23.1178C70.5602 22.7212 70.1352 21.5878 69.7952 20.5962C68.9736 18.1878 68.1802 16.6862 67.5569 16.3745C66.7636 15.9495 65.4319 15.8078 64.4969 16.0345ZM70.2486 24.5345C75.8586 38.7862 76.8786 41.3928 77.0486 41.7328C77.1619 42.0162 76.6519 42.1012 75.0369 42.1012C72.9969 42.1012 72.8836 42.0728 72.7136 41.3928C72.6286 40.9962 72.0619 39.4378 71.4669 37.9362L70.3902 35.1595H65.4886H60.5869L59.3119 38.6162L58.0369 42.1012H56.1102C55.0619 42.1012 54.1836 42.0445 54.1836 41.9878C54.1836 41.9312 56.2236 36.5762 58.7169 30.0878C61.2102 23.5995 63.3352 17.9612 63.4202 17.5645C63.5902 16.8845 63.6752 16.8562 65.4602 16.9412L67.3019 17.0262L70.2486 24.5345Z" fill="black"/>
<path d="M64.4402 24.0804C63.9302 25.6387 63.0802 28.0471 62.5702 29.4071L61.6352 31.9004H65.4602C68.9452 31.9004 69.2569 31.8721 69.1152 31.3904C68.6902 30.0304 65.6302 21.4171 65.5169 21.3321C65.4319 21.2471 64.9502 22.4937 64.4402 24.0804ZM66.0835 25.9221C66.0835 26.1771 66.1969 26.5171 66.3385 26.6587C66.6502 26.9987 67.5002 29.8321 67.5002 30.5404C67.5002 30.9937 67.2452 31.0504 65.3752 31.0504H63.2502L63.4202 30.2571C63.5335 29.8321 63.9869 28.4437 64.4402 27.1404C65.1485 25.2137 65.3752 24.8454 65.6869 25.1287C65.9135 25.2987 66.0835 25.6671 66.0835 25.9221Z" fill="black"/>
</svg>

<svg xmlns="http://www.w3.org/2000/svg" width="86" height="56" fill="none"><path fill="#000" d="M31.547 8.497c-.566.595-1.388 2.522-2.861 6.602-.284.793-.68 1.728-.85 2.068-.199.368-.765 1.813-1.275 3.23-1.049 2.947-4.279 11.362-4.675 12.212-.142.311-.595 1.53-1.02 2.691-.397 1.162-.85 2.239-.992 2.409-.142.141-.255.481-.255.765 0 .255-.425 1.473-.963 2.691-1.389 3.174-2.465 6.489-2.267 6.97.368.992 1.332 1.049 16.405 1.049 10.512 0 15.045-.085 15.555-.312.68-.312 1.558-1.813 1.983-3.372.17-.651.68-1.898 1.757-4.448.227-.482.397-1.077.397-1.303 0-.255.113-.51.255-.595.141-.085.34-.51.453-.935.085-.454.368-1.02.623-1.275.227-.255.34-.624.227-.794-.113-.198-.057-.453.113-.566.199-.114.369-.482.397-.794.028-.34.142-.623.255-.623s.227-.17.227-.397c0-.34 1.53-4.618 2.266-6.261.114-.312.51-1.332.879-2.267.34-.935.765-2.097.963-2.55.198-.482.51-1.303.708-1.842.17-.538.454-1.246.567-1.558.935-2.295 2.267-5.865 2.55-6.8.198-.623.51-1.388.68-1.7.595-.935.765-1.615.397-1.388-.199.141-.255.056-.142-.227.085-.255-.057-.652-.34-.907-.453-.396-2.21-.453-15.952-.453H32.171zm30.232 4.477c-.907 2.38-2.862 7.451-4.335 11.276a1908 1908 0 0 1-4.392 11.475 967 967 0 0 0-3.201 8.415l-1.474 3.882-15.668.085c-13.827.085-15.668.028-15.555-.34.085-.227 1.417-3.797 3.003-7.905 3.145-8.103 11.589-30.26 11.787-30.855.085-.255 3.513-.34 15.81-.34h15.697z"/><path fill="#000" d="M36.9 17.534c-2.21.652-3.486 1.389-5.1 3.032-3.797 3.825-4.732 9.888-2.296 14.875 1.02 2.04 3.23 4.25 5.242 5.185 4.193 1.983 9.463 1.133 12.92-2.097l1.417-1.331-1.049-.935c-.595-.51-1.19-.935-1.303-.964-.142 0-.538.369-.907.794-.368.425-1.331 1.161-2.181 1.615-1.304.736-1.785.85-3.769.85-1.983 0-2.465-.114-3.796-.85-2.89-1.587-4.335-4.279-4.364-8.217-.028-3.173.624-4.93 2.635-6.97 1.757-1.785 3.315-2.38 5.95-2.323 2.04.056 3.429.68 5.129 2.266l1.416 1.304.964-.935c.538-.539.991-1.077.991-1.19 0-.567-2.55-2.635-4.193-3.4-2.097-1.02-5.582-1.332-7.707-.709m7.338 1.587c.708.368 1.445.85 1.671 1.048.199.227.482.397.624.397.141 0 .396.255.566.567.454.85-.368 1.048-1.303.311-.425-.34-.652-.595-.51-.595s-.453-.34-1.303-.736c-.85-.397-2.295-.794-3.202-.879-1.813-.17-4.533.34-5.043.964-.17.198-.482.368-.652.368-.198 0-1.048.765-1.955 1.7-1.105 1.19-1.53 1.842-1.417 2.182.142.34.085.396-.198.226-.227-.141-.312-.113-.198.057s-.029.878-.255 1.615c-.34.963-.425 1.898-.312 3.372.227 2.861.34 3.4 1.077 4.873.623 1.247 2.805 3.882 2.805 3.4 0-.113.226-.028.51.227 1.841 1.671 7.31 1.813 9.208.198.283-.227.567-.397.623-.368.085.056.454-.255.822-.624.425-.425.878-.623 1.162-.538 1.048.425-1.02 2.21-3.769 3.258-1.36.51-2.04.567-4.08.454-1.388-.057-2.663-.255-2.833-.397-.198-.17-.68-.368-1.077-.453-.878-.227-3.116-1.899-3.116-2.352 0-.198-.199-.425-.425-.51-.255-.085-.85-1.02-1.36-2.068-.794-1.729-.907-2.239-.992-4.902-.057-2.72 0-3.145.708-4.873.879-2.125 3.485-5.327 4.307-5.327.283 0 .68-.198.878-.425.17-.227.425-.397.51-.368.114.028.397-.029.624-.142.226-.085.623-.227.85-.312s1.643-.113 3.116-.085c2.154.085 2.947.227 3.939.737M9.7 15.977c-2.04.198-1.983-.283-1.983 13.543-.028 14.366-.198 13.43 2.692 13.43 2.691 0 2.804-.226 2.918-5.355.028-2.266.113-4.448.142-4.816.056-.652.113-.652 3.23-.709 3.003-.028 3.23-.056 3.881-.736.737-.793 1.729-3.4 1.275-3.4-.17 0-.227-.114-.142-.255.312-.482-.878-.737-4.504-.878l-3.684-.142v-5.383h10.427l.793-.794c1.558-1.53 1.672-3.966.17-4.306-.765-.17-13.826-.34-15.215-.199M24.83 18.5l-.651 1.643-5.95.085-5.979.057v7.707000000000001l4.534-.114c2.493-.028 4.505-.028 4.448.057a95 95 0 0 1-.623 1.615l-.567 1.502H12.25V42.1H8.567V16.884H25.51zM64.497 16.035c-1.162.255-1.927.85-2.04 1.558-.057.311-.198.68-.34.85-.113.141-.425.991-.708 1.842-.284.85-.624 1.728-.794 1.898-.141.198-.17.368-.056.368.113 0 .085.17-.057.34-.17.199-.453.879-.652 1.502-.198.623-.453 1.247-.566 1.416-.085.142-.539 1.304-.992 2.55-.425 1.247-.907 2.38-1.02 2.522-.142.17-.255.567-.255.907s-.085.68-.198.737c-.142.028-.51.85-.85 1.785s-.879 2.408-1.219 3.258-.821 2.182-1.02 2.975c-.396 1.36-.368 1.445.199 1.898.425.368 1.105.51 2.266.51 2.012 0 2.862-.651 3.57-2.72.255-.765.567-1.53.709-1.7.141-.198.226-.453.198-.566-.028-.142.085-.596.255-1.049l.34-.765h8.443000000000001l1.077 2.749c1.417 3.768 1.728 4.051 4.052 4.051 2.096 0 2.436-.142 2.805-1.105.17-.481.113-.991-.255-1.728-.284-.595-.567-1.417-.652-1.87s-.283-.85-.453-.907c-.142-.056-.227-.198-.142-.312.057-.141-.113-.765-.425-1.388-.312-.651-.567-1.303-.567-1.473 0-.142-.113-.51-.255-.794-.368-.736-1.048-2.351-1.53-3.598-1.586-4.193-2.295-6.035-2.606-6.658-.199-.397-.624-1.53-.964-2.522-.821-2.408-1.615-3.91-2.238-4.221-.793-.425-2.125-.567-3.06-.34m5.752 8.5c5.61 14.251 6.63 16.858 6.8 17.198.113.283-.397.368-2.012.368-2.04 0-2.153-.028-2.323-.708-.085-.397-.652-1.955-1.247-3.457L70.39 35.16h-9.803l-1.275 3.456-1.275 3.485H56.11c-1.048 0-1.926-.056-1.926-.113s2.04-5.412 4.533-11.9 4.618-12.127 4.703-12.524c.17-.68.255-.708 2.04-.623l1.842.085z"/><path fill="#000" d="M64.44 24.08c-.51 1.559-1.36 3.967-1.87 5.327l-.935 2.493h3.825c3.485 0 3.797-.028 3.655-.51-.425-1.36-3.485-9.973-3.598-10.058-.085-.085-.567 1.162-1.077 2.748m1.644 1.842c0 .255.113.595.254.737.312.34 1.162 3.173 1.162 3.881 0 .454-.255.51-2.125.51H63.25l.17-.793c.113-.425.567-1.813 1.02-3.117.709-1.926.935-2.295 1.247-2.011.227.17.397.538.397.793"/></svg>
